icons/Sun_filled.svg

<svg width="24" height="24" viewBox="0 0 24 24" fill="none" xmlns="http://www.w3.org/2000/svg">
<path fill-rule="evenodd" clip-rule="evenodd" d="M11.25,2.25c0,-0.41421 0.3358,-0.75 0.75,-0.75c0.4142,0 0.75,0.33579 0.75,0.75v2c0,0.41421 -0.3358,0.75 -0.75,0.75c-0.4142,0 -0.75,-0.33579 -0.75,-0.75zM18.364,4.57538c0.2929,-0.29289 0.7677,-0.29289 1.0606,0c0.2929,0.29289 0.2929,0.76777 0,1.06066l-1.4142,1.41421c-0.2929,0.2929 -0.7678,0.2929 -1.0607,0c-0.2928,-0.29289 -0.2928,-0.76776 0,-1.06066zM4.57538,4.57538c0.29289,-0.29289 0.76777,-0.29289 1.06066,0l1.41421,1.41421c0.2929,0.2929 0.2929,0.76777 0,1.06066c-0.29289,0.2929 -0.76776,0.2929 -1.06066,0l-1.41421,-1.41421c-0.29289,-0.29289 -0.29289,-0.76777 0,-1.06066zM16.75,12c0,2.6233 -2.1266,4.75 -4.75,4.75c-2.62335,0 -4.75,-2.1267 -4.75,-4.75c0,-2.62337 2.12665,-4.75001 4.75,-4.75001c2.6234,0 4.75,2.12664 4.75,4.75001zM1.5,12c0,-0.4142 0.33579,-0.75 0.75,-0.75h2c0.41421,0 0.75,0.3358 0.75,0.75c0,0.4142 -0.33579,0.75 -0.75,0.75h-2c-0.41421,0 -0.75,-0.3358 -0.75,-0.75zM21.75,11.25c0.4142,0 0.75,0.3358 0.75,0.75c0,0.4142 -0.3358,0.75 -0.75,0.75h-2c-0.4142,0 -0.75,-0.3358 -0.75,-0.75c0,-0.4142 0.3358,-0.75 0.75,-0.75zM19.4246,18.364c0.2929,0.2929 0.2929,0.7677 0,1.0606c-0.2929,0.2929 -0.7677,0.2929 -1.0606,0l-1.4143,-1.4142c-0.2928,-0.2929 -0.2928,-0.7678 0,-1.0607c0.2929,-0.2928 0.7678,-0.2928 1.0607,0zM4.57538,19.4246c-0.29289,-0.2929 -0.29289,-0.7677 0,-1.0606l1.41421,-1.4143c0.2929,-0.2928 0.76777,-0.2928 1.06066,0c0.2929,0.2929 0.2929,0.7678 0,1.0607l-1.41421,1.4142c-0.29289,0.2929 -0.76777,0.2929 -1.06066,0zM12,22.5c-0.4142,0 -0.75,-0.3358 -0.75,-0.75v-2c0,-0.4142 0.3358,-0.75 0.75,-0.75c0.4142,0 0.75,0.3358 0.75,0.75v2c0,0.4142 -0.3358,0.75 -0.75,0.75z" fill="#002B51"/>
</svg>

<svg width="24" height="24" viewBox="0 0 24 24" fill="none" xmlns="http://www.w3.org/2000/svg">
<path fill-rule="evenodd" clip-rule="evenodd" d="M11.25 4.25C11.25 4.66421 11.5858 5 12 5C12.4142 5 12.75 4.66421 12.75 4.25V2.25C12.75 1.83579 12.4142 1.5 12 1.5C11.5858 1.5 11.25 1.83579 11.25 2.25V4.25ZM16.9497 5.98959C16.6569 6.28249 16.6569 6.75736 16.9497 7.05025C17.2426 7.34315 17.7175 7.34315 18.0104 7.05025L19.4246 5.63604C19.7175 5.34315 19.7175 4.86827 19.4246 4.57538C19.1317 4.28249 18.6569 4.28249 18.364 4.57538L16.9497 5.98959ZM4.57538 4.57538C4.86827 4.28249 5.34315 4.28249 5.63604 4.57538L7.05025 5.98959C7.34315 6.28249 7.34315 6.75736 7.05025 7.05025C6.75736 7.34315 6.28249 7.34315 5.98959 7.05025L4.57538 5.63604C4.28249 5.34315 4.28249 4.86827 4.57538 4.57538ZM12 7.24999C9.37665 7.24999 7.25 9.37663 7.25 12C7.25 14.6233 9.37665 16.75 12 16.75C14.6234 16.75 16.75 14.6233 16.75 12C16.75 9.37663 14.6234 7.24999 12 7.24999ZM1.5 12C1.5 11.5858 1.83579 11.25 2.25 11.25H4.25C4.66421 11.25 5 11.5858 5 12C5 12.4142 4.66421 12.75 4.25 12.75H2.25C1.83579 12.75 1.5 12.4142 1.5 12ZM19.75 11.25C19.3358 11.25 19 11.5858 19 12C19 12.4142 19.3358 12.75 19.75 12.75H21.75C22.1642 12.75 22.5 12.4142 22.5 12C22.5 11.5858 22.1642 11.25 21.75 11.25H19.75ZM18.0104 16.9497C17.7175 16.6569 17.2426 16.6569 16.9497 16.9497C16.6569 17.2426 16.6569 17.7175 16.9497 18.0104L18.364 19.4246C18.6569 19.7175 19.1317 19.7175 19.4246 19.4246C19.7175 19.1317 19.7175 18.6569 19.4246 18.364L18.0104 16.9497ZM4.57538 19.4246C4.28249 19.1317 4.28249 18.6569 4.57538 18.364L5.98959 16.9497C6.28249 16.6569 6.75736 16.6569 7.05025 16.9497C7.34315 17.2426 7.34315 17.7175 7.05025 18.0104L5.63604 19.4246C5.34315 19.7175 4.86827 19.7175 4.57538 19.4246ZM12 22.5C11.5858 22.5 11.25 22.1642 11.25 21.75V19.75C11.25 19.3358 11.5858 19 12 19C12.4142 19 12.75 19.3358 12.75 19.75V21.75C12.75 22.1642 12.4142 22.5 12 22.5Z" fill="#002B51"/>
</svg>
